X:1
T:Title
L:1/8
M:6/8
K:Ab
V:1 treble nm="Grand Piano"
V:1
 z3 z2[Q:1/4=140] A | F2 F F2 A | F2 F =E2 F | G2 =E C3- | C2 C C2 C | D2 D C2 C | =E3- E2 B | %7
 G2 G G2 B | G2 G G2 G | A2 B c3- | c2 B G2 A | F2 G =E2 G | F6 | c2 d c2 B | c6 | c2 d c2 B | c6 | %17
 c2 d c2 d | e2 d c2 B | A3- A2 B/A/ | G6 | B2 c B2 =A | B3 B2 B | B2 c B2 =A | B6 | B2 c B2 c | %26
 d2 c e2 d | c6- | c6 | c3 B2 A | A2 F- F3 | B3 A2 G | G2 =E- E3 | d3 c2 B | A6 | c2 B A2 G | %36
 F3 C2 C | A2 G F2 =E | F6 |] %39

